X:532
T:Julia - as a waltz
C:Colin Hume, 2011
M:3/4
R:Waltz
%%MIDI beat 100 95 80
%%MIDI program 43
%%MIDI chordprog 50
%%MIDI bassprog 50
%%printtempo 0
N:Written as a reel for Julia Day on her 50th birthday, but you can also play it as a waltz.
S:Colin Hume's website,  colinhume.com  - chords can also be printed below the stave.
Q:1/4=120
K:G
[| "G"d3/c/B | "Em"B3/A/G | "Am"AcB | "D7"A2 G/A/ | "Em"B3/A/ G | "C"G3/F/ E | "Am"ABc | "D7"e2d |
"G"d3/c/B | "Em"B3/A/G | "C"egf | "Am"e2 d/c/ | "G/D"B2 c/B/ | "D"A2 B/A/ | "C"G3/E/ G/A/ | "G"G3 ||
"Bm"d3/c/B | "C"e3/d/c | "A7/C#"eag | "D"f3/e/ d | "Em"b3/a/g | "C"fe f/g/ | "D"a2 "B7/D#"f | "Em"g3 |
"C"gfe | "G/D"d3/c/B | "B7"cBA | "Em/C#"G3/F/E | "G/D"DGA | "/D"Bd "C/D"c | "D7"B2 A | "G"G3 |]

